; generated by PrusaSlicer 2.4.1+win64 on 2022-04-12 at 20:01:25 UTC

; 

; external perimeters extrusion width = 0.60mm
; perimeters extrusion width = 0.50mm
; infill extrusion width = 0.50mm
; solid infill extrusion width = 0.50mm
; top infill extrusion width = 0.45mm
; first layer extrusion width = 0.42mm

M73 P0 R152
M73 Q0 S153
M201 X1000 Y1000 Z200 E5000 ; sets maximum accelerations, mm/sec^2
M203 X200 Y200 Z12 E120 ; sets maximum feedrates, mm / sec
M204 P1250 R1250 T1250 ; sets acceleration (P, T) and retract acceleration (R), mm/sec^2
M205 X8.00 Y8.00 Z0.40 E4.50 ; sets the jerk limits, mm/sec
M205 S0 T0 ; sets the minimum extruding and travel feed rate, mm/sec
M107
;TYPE:Custom
M862.3 P "MK3SMMU2S" ; printer model check
M862.1 P0.4 ; nozzle diameter check
M115 U3.10.1 ; tell printer latest fw version
G90 ; use absolute coordinates
M83 ; extruder relative mode
M104 S230 ; set extruder temp
M140 S85 ; set bed temp
Tx
M190 S85 ; wait for bed temp
M109 S230 ; wait for extruder temp
G28 W ; home all without mesh bed level
G80 ; mesh bed leveling

;go outside print area
G1 Y-3 F1000
G1 Z0.4 F1000
; select extruder
Tc
; purge line
G1 X55 F2000
G1 Z0.3 F1000
G92 E0
G1 X240 E25 F2200
G1 Y-2 F1000
G1 X55 E25 F1400
G1 Z0.2 F1000
G1 X5 E4 F1000

M221 S95
G92 E0

; Don't change E values below. Excessive value can damage the printer.

M907 E538 ; set extruder motor current
G21 ; set units to millimeters
G90 ; use absolute coordinates
M83 ; use relative distances for extrusion
M900 K0.08 ; Filament gcode LA 1.5
M900 K45 ; Filament gcode LA 1.0
M107
;LAYER_CHANGE
;Z:0.2
;HEIGHT:0.2
;BEFORE_LAYER_CHANGE
G92 E0.0
;0.2


G1 E-1 F2100
G1 Z.2 F720
;AFTER_LAYER_CHANGE
;0.2
G1 Z.4
G1 X53.86 Y74.317 F10800
G1 Z.2 F720
G1 E1 F2100
M204 S800
;TYPE:Skirt/Brim
;WIDTH:0.42
G1 F1200
G1 X54.8 Y74.123 E.03008
G1 X195.2 Y74.123 E4.40214
G1 X196.507 Y74.515 E.04278
G1 X197.383 Y75.56 E.04278
G1 X197.577 Y76.5 E.03008
G1 X197.577 Y133.5 E1.78719
G1 X197.185 Y134.807 E.04278
M73 P0 R151
G1 X196.14 Y135.683 E.04278
G1 X195.2 Y135.877 E.03008
G1 X54.8 Y135.877 E4.40214
G1 X53.493 Y135.485 E.04278
G1 X52.617 Y134.44 E.04278
G1 X52.423 Y133.5 E.03008
G1 X52.423 Y76.5 E1.78719
G1 X52.815 Y75.193 E.04278
G1 X53.814 Y74.355 E.0409
M204 S1000
; printing object 3_4inSpacer.stl id:0 copy 0
;WIPE_START
G1 F8640
G1 X54.8 Y74.123 E-.23384
G1 X57.902 Y74.123 E-.71616
;WIPE_END
G1 E-.05 F2100
G1 Z.4 F720
G1 X181.212 Y117.52 F10800
G1 Z.2 F720
M73 Q0 S152
G1 E1 F2100
M204 S800
;TYPE:Perimeter
G1 F1200
G1 X181.531 Y116.679 E.02818
G1 X182.067 Y115.902 E.02961
G1 X182.774 Y115.276 E.02961
G1 X183.611 Y114.837 E.02961
G1 X184.528 Y114.611 E.02961
G1 X185.472 Y114.611 E.02961
G1 X186.389 Y114.837 E.02961
G1 X187.226 Y115.276 E.02961
G1 X187.933 Y115.902 E.02961
G1 X188.469 Y116.679 E.02961
G1 X188.804 Y117.562 E.02961
G1 X188.918 Y118.5 E.02961
G1 X188.804 Y119.438 E.02961
G1 X188.469 Y120.321 E.02961
G1 X187.933 Y121.098 E.02961
G1 X187.226 Y121.724 E.02961
G1 X186.389 Y122.163 E.02961
G1 X185.472 Y122.389 E.02961
G1 X184.528 Y122.389 E.02961
G1 X183.611 Y122.163 E.02961
G1 X182.774 Y121.724 E.02961
G1 X182.067 Y121.098 E.02961
G1 X181.531 Y120.321 E.02961
G1 X181.196 Y119.438 E.02961
G1 X181.082 Y118.5 E.02961
G1 X181.194 Y117.577 E.02917
M204 S1000
G1 X181.565 Y117.653 F10800
M204 S800
;TYPE:External perimeter
G1 F1200
G1 X181.867 Y116.856 E.02674
G1 X182.352 Y116.154 E.02674
G1 X182.99 Y115.588 E.02674
G1 X183.745 Y115.192 E.02674
G1 X184.574 Y114.988 E.02674
G1 X185.426 Y114.988 E.02674
G1 X186.255 Y115.192 E.02674
G1 X187.01 Y115.588 E.02674
G1 X187.648 Y116.154 E.02674
G1 X188.133 Y116.856 E.02674
G1 X188.435 Y117.653 E.02674
G1 X188.538 Y118.5 E.02674
G1 X188.435 Y119.347 E.02674
G1 X188.133 Y120.144 E.02674
G1 X187.648 Y120.846 E.02674
G1 X187.01 Y121.412 E.02674
G1 X186.255 Y121.808 E.02674
G1 X185.426 Y122.012 E.02674
G1 X184.574 Y122.012 E.02674
G1 X183.745 Y121.808 E.02674
G1 X182.99 Y121.412 E.02674
G1 X182.352 Y120.846 E.02674
G1 X181.867 Y120.144 E.02674
G1 X181.565 Y119.347 E.02674
G1 X181.462 Y118.5 E.02674
G1 X181.558 Y117.713 E.02486
M204 S1000
G1 X181.276 Y117.376 F10800
;WIPE_START
G1 F8640
G1 X181.867 Y116.856 E-.21042
G1 X182.352 Y116.154 E-.19694
G1 X182.99 Y115.588 E-.19694
G1 X183.745 Y115.192 E-.19694
G1 X184.371 Y115.038 E-.14876
;WIPE_END
G1 E-.05 F2100
G1 Z.4 F720
G1 X184.574 Y92.389 F10800
G1 Z.2 F720
G1 E1 F2100
M204 S800
;TYPE:Perimeter
G1 F1200
G1 X183.611 Y92.163 E.03101
G1 X182.774 Y91.724 E.02961
G1 X182.067 Y91.098 E.02961
G1 X181.531 Y90.321 E.02961
G1 X181.196 Y89.438 E.02961
G1 X181.082 Y88.5 E.02961
G1 X181.196 Y87.562 E.02961
G1 X181.531 Y86.679 E.02961
G1 X182.067 Y85.902 E.02961
G1 X182.774 Y85.276 E.02961
G1 X183.611 Y84.837 E.02961
G1 X184.528 Y84.611 E.02961
G1 X185.472 Y84.611 E.02961
G1 X186.389 Y84.837 E.02961
G1 X187.226 Y85.276 E.02961
G1 X187.933 Y85.902 E.02961
G1 X188.469 Y86.679 E.02961
G1 X188.804 Y87.562 E.02961
G1 X188.918 Y88.5 E.02961
G1 X188.804 Y89.438 E.02961
G1 X188.469 Y90.321 E.02961
G1 X187.933 Y91.098 E.02961
G1 X187.226 Y91.724 E.02961
G1 X186.389 Y92.163 E.02961
G1 X185.472 Y92.389 E.02961
G1 X184.634 Y92.389 E.0263
M204 S1000
G1 X184.574 Y92.012 F10800
M204 S800
;TYPE:External perimeter
G1 F1200
G1 X183.745 Y91.808 E.02674
G1 X182.99 Y91.412 E.02674
G1 X182.352 Y90.846 E.02674
G1 X181.867 Y90.144 E.02674
G1 X181.565 Y89.347 E.02674
G1 X181.462 Y88.5 E.02674
G1 X181.565 Y87.653 E.02674
G1 X181.867 Y86.856 E.02674
G1 X182.352 Y86.154 E.02674
G1 X182.99 Y85.588 E.02674
G1 X183.745 Y85.192 E.02674
G1 X184.574 Y84.988 E.02674
G1 X185.426 Y84.988 E.02674
G1 X186.255 Y85.192 E.02674
G1 X187.01 Y85.588 E.02674
G1 X187.648 Y86.154 E.02674
G1 X188.133 Y86.856 E.02674
G1 X188.435 Y87.653 E.02674
G1 X188.538 Y88.5 E.02674
G1 X188.435 Y89.347 E.02674
G1 X188.133 Y90.144 E.02674
G1 X187.648 Y90.846 E.02674
G1 X187.01 Y91.412 E.02674
G1 X186.255 Y91.808 E.02674
G1 X185.426 Y92.012 E.02674
G1 X184.634 Y92.012 E.02486
M204 S1000
G1 X184.333 Y92.332 F10800
;WIPE_START
G1 F8640
G1 X183.745 Y91.808 E-.21042
G1 X182.99 Y91.412 E-.19694
G1 X182.352 Y90.846 E-.19694
G1 X181.867 Y90.144 E-.19694
G1 X181.639 Y89.542 E-.14876
;WIPE_END
G1 E-.05 F2100
G1 Z.4 F720
G1 X68.912 Y88.545 F10800
G1 Z.2 F720
G1 E1 F2100
M204 S800
;TYPE:Perimeter
G1 F1200
G1 X68.804 Y89.438 E.02818
G1 X68.469 Y90.321 E.02961
G1 X67.933 Y91.098 E.02961
G1 X67.226 Y91.724 E.02961
G1 X66.389 Y92.163 E.02961
G1 X65.472 Y92.389 E.02961
G1 X64.528 Y92.389 E.02961
G1 X63.611 Y92.163 E.02961
G1 X62.774 Y91.724 E.02961
G1 X62.067 Y91.098 E.02961
G1 X61.531 Y90.321 E.02961
G1 X61.196 Y89.438 E.02961
G1 X61.082 Y88.5 E.02961
G1 X61.196 Y87.562 E.02961
G1 X61.531 Y86.679 E.02961
G1 X62.067 Y85.902 E.02961
G1 X62.774 Y85.276 E.02961
G1 X63.611 Y84.837 E.02961
G1 X64.528 Y84.611 E.02961
G1 X65.472 Y84.611 E.02961
G1 X66.389 Y84.837 E.02961
G1 X67.226 Y85.276 E.02961
G1 X67.933 Y85.902 E.02961
G1 X68.469 Y86.679 E.02961
G1 X68.804 Y87.562 E.02961
G1 X68.916 Y88.486 E.02917
M204 S1000
G1 X68.538 Y88.5 F10800
M204 S800
;TYPE:External perimeter
G1 F1200
G1 X68.435 Y89.347 E.02674
G1 X68.133 Y90.144 E.02674
G1 X67.648 Y90.846 E.02674
G1 X67.01 Y91.412 E.02674
G1 X66.255 Y91.808 E.02674
G1 X65.426 Y92.012 E.02674
G1 X64.574 Y92.012 E.02674
G1 X63.745 Y91.808 E.02674
G1 X62.99 Y91.412 E.02674
G1 X62.352 Y90.846 E.02674
G1 X61.867 Y90.144 E.02674
G1 X61.565 Y89.347 E.02674
G1 X61.462 Y88.5 E.02674
G1 X61.565 Y87.653 E.02674
G1 X61.867 Y86.856 E.02674
G1 X62.352 Y86.154 E.02674
G1 X62.99 Y85.588 E.02674
G1 X63.745 Y85.192 E.02674
G1 X64.574 Y84.988 E.02674
G1 X65.426 Y84.988 E.02674
G1 X66.255 Y85.192 E.02674
G1 X67.01 Y85.588 E.02674
G1 X67.648 Y86.154 E.02674
G1 X68.133 Y86.856 E.02674
G1 X68.435 Y87.653 E.02674
G1 X68.531 Y88.44 E.02486
M204 S1000
G1 X68.884 Y88.7 F10800
;WIPE_START
G1 F8640
G1 X68.435 Y89.347 E-.21042
G1 X68.133 Y90.144 E-.19694
G1 X67.648 Y90.846 E-.19694
G1 X67.01 Y91.412 E-.19694
G1 X66.439 Y91.711 E-.14875
;WIPE_END
G1 E-.05 F2100
G1 Z.4 F720
G1 X65.426 Y114.611 F10800
G1 Z.2 F720
G1 E1 F2100
M204 S800
;TYPE:Perimeter
G1 F1200
G1 X66.389 Y114.837 E.03101
G1 X67.226 Y115.276 E.02961
G1 X67.933 Y115.902 E.02961
G1 X68.469 Y116.679 E.02961
G1 X68.804 Y117.562 E.02961
G1 X68.918 Y118.5 E.02961
G1 X68.804 Y119.438 E.02961
G1 X68.469 Y120.321 E.02961
G1 X67.933 Y121.098 E.02961
G1 X67.226 Y121.724 E.02961
G1 X66.389 Y122.163 E.02961
G1 X65.472 Y122.389 E.02961
G1 X64.528 Y122.389 E.02961
G1 X63.611 Y122.163 E.02961
G1 X62.774 Y121.724 E.02961
G1 X62.067 Y121.098 E.02961
G1 X61.531 Y120.321 E.02961
G1 X61.196 Y119.438 E.02961
G1 X61.082 Y118.5 E.02961
G1 X61.196 Y117.562 E.02961
G1 X61.531 Y116.679 E.02961
G1 X62.067 Y115.902 E.02961
G1 X62.774 Y115.276 E.02961
G1 X63.611 Y114.837 E.02961
G1 X64.528 Y114.611 E.02961
G1 X65.366 Y114.611 E.0263
M204 S1000
G1 X65.426 Y114.988 F10800
M204 S800
;TYPE:External perimeter
G1 F1200
G1 X66.255 Y115.192 E.02674
G1 X67.01 Y115.588 E.02674
G1 X67.648 Y116.154 E.02674
G1 X68.133 Y116.856 E.02674
G1 X68.435 Y117.653 E.02674
G1 X68.538 Y118.5 E.02674
G1 X68.435 Y119.347 E.02674
G1 X68.133 Y120.144 E.02674
G1 X67.648 Y120.846 E.02674
G1 X67.01 Y121.412 E.02674
G1 X66.255 Y121.808 E.02674
G1 X65.426 Y122.012 E.02674
G1 X64.574 Y122.012 E.02674
G1 X63.745 Y121.808 E.02674
G1 X62.99 Y121.412 E.02674
G1 X62.352 Y120.846 E.02674
G1 X61.867 Y120.144 E.02674
G1 X61.565 Y119.347 E.02674
G1 X61.462 Y118.5 E.02674
G1 X61.565 Y117.653 E.02674
G1 X61.867 Y116.856 E.02674
G1 X62.352 Y116.154 E.02674
G1 X62.99 Y115.588 E.02674
G1 X63.745 Y115.192 E.02674
G1 X64.574 Y114.988 E.02674
G1 X65.366 Y114.988 E.02486
M204 S1000
G1 X65.667 Y114.668 F10800
;WIPE_START
G1 F8640
G1 X66.255 Y115.192 E-.21042
G1 X67.01 Y115.588 E-.19694
G1 X67.648 Y116.154 E-.19694
G1 X68.133 Y116.856 E-.19694
G1 X68.361 Y117.458 E-.14876
;WIPE_END
G1 E-.05 F2100
G1 Z.4 F720
G1 X55.587 Y132.713 F10800
G1 Z.2 F720
G1 E1 F2100
M204 S800
;TYPE:Perimeter
G1 F1200
G1 X55.587 Y77.287 E1.73784
G1 X194.413 Y77.287 E4.35279
G1 X194.413 Y132.713 E1.73784
G1 X55.647 Y132.713 E4.35091
M204 S1000
G1 X55.21 Y133.09 F10800
M204 S800
;TYPE:External perimeter
G1 F1200
G1 X55.21 Y76.91 E1.76148
G1 X194.79 Y76.91 E4.37643
G1 X194.79 Y133.09 E1.76148
G1 X55.27 Y133.09 E4.37455
M204 S1000
G1 X55.364 Y132.721 F10800
;WIPE_START
M73 P1 R150
M73 Q1 S152
G1 F8640
G1 X55.266 Y128.976 E-.95
;WIPE_END
G1 E-.05 F2100
G1 Z.4 F720
G1 X194.3 Y78.164 F10800
G1 Z.2 F720
G1 E1 F2100
M204 S800
;TYPE:Solid infill
;WIDTH:0.420578
G1 F1200
G1 X193.706 Y77.57 E.02637
G1 X193.172 Y77.57 E.01677
G1 X194.13 Y78.528 E.04255
G1 X194.13 Y79.062 E.01677
G1 X192.638 Y77.57 E.06627
G1 X192.104 Y77.57 E.01677
G1 X194.13 Y79.596 E.08999
G1 X194.13 Y80.13 E.01677
G1 X191.57 Y77.57 E.11371
G1 X191.036 Y77.57 E.01677
G1 X194.13 Y80.664 E.13743
G1 X194.13 Y81.199 E.01677
G1 X190.501 Y77.57 E.16115
G1 X189.967 Y77.57 E.01677
G1 X194.13 Y81.733 E.18487
G1 X194.13 Y82.267 E.01677
G1 X189.433 Y77.57 E.20859
G1 X188.899 Y77.57 E.01677
G1 X194.13 Y82.801 E.2323
G1 X194.13 Y83.335 E.01677
G1 X188.365 Y77.57 E.25602
G1 X187.831 Y77.57 E.01677
G1 X194.13 Y83.869 E.27974
G1 X194.13 Y84.403 E.01677
G1 X187.297 Y77.57 E.30346
G1 X186.763 Y77.57 E.01677
G1 X194.13 Y84.937 E.32718
G1 X194.13 Y85.471 E.01677
G1 X186.229 Y77.57 E.3509
G1 X185.695 Y77.57 E.01677
G1 X194.13 Y86.005 E.37462
G1 X194.13 Y86.539 E.01677
G1 X185.161 Y77.57 E.39833
G1 X184.626 Y77.57 E.01677
M73 Q1 S151
G1 X194.13 Y87.074 E.42205
G1 X194.13 Y87.608 E.01677
G1 X184.092 Y77.57 E.44577
G1 X183.558 Y77.57 E.01677
G1 X194.13 Y88.142 E.46949
G1 X194.13 Y88.676 E.01677
G1 X183.024 Y77.57 E.49321
G1 X182.49 Y77.57 E.01677
G1 X194.13 Y89.21 E.51693
G1 X194.13 Y89.744 E.01677
G1 X181.956 Y77.57 E.54065
G1 X181.422 Y77.57 E.01677
G1 X194.13 Y90.278 E.56437
G1 X194.13 Y90.812 E.01677
G1 X180.888 Y77.57 E.58808
G1 X180.354 Y77.57 E.01677
G1 X194.13 Y91.346 E.6118
G1 X194.13 Y91.88 E.01677
G1 X179.82 Y77.57 E.63552
G1 X179.286 Y77.57 E.01677
G1 X186.219 Y84.504 E.30792
G1 X185.511 Y84.329 E.02292
G1 X178.752 Y77.57 E.30016
G1 X178.217 Y77.57 E.01677
G1 X184.975 Y84.328 E.30012
G1 X184.452 Y84.338 E.01645
G1 X177.683 Y77.57 E.30058
G1 X177.149 Y77.57 E.01677
G1 X184.023 Y84.444 E.30527
G1 X183.595 Y84.549 E.01386
G1 X176.615 Y77.57 E.30996
G1 X176.081 Y77.57 E.01677
G1 X183.229 Y84.718 E.31743
G1 X182.879 Y84.902 E.01242
G1 X175.547 Y77.57 E.3256
G1 X175.013 Y77.57 E.01677
G1 X182.545 Y85.102 E.33448
G1 X182.261 Y85.352 E.01188
G1 X174.479 Y77.57 E.34562
G1 X173.945 Y77.57 E.01677
G1 X181.978 Y85.603 E.35676
G1 X181.854 Y85.713 E.0052
G1 X181.732 Y85.891 E.00678
G1 X173.411 Y77.57 E.36953
G1 X172.877 Y77.57 E.01677
G1 X181.513 Y86.207 E.38356
G1 X181.295 Y86.523 E.01206
G1 X172.342 Y77.57 E.39759
G1 X171.808 Y77.57 E.01677
G1 X181.143 Y86.905 E.41455
G1 X180.996 Y87.292 E.01301
G1 X171.274 Y77.57 E.43175
G1 X170.74 Y77.57 E.01677
G1 X180.892 Y87.721 E.45083
G1 X180.834 Y88.198 E.01507
G1 X170.206 Y77.57 E.47198
G1 X169.672 Y77.57 E.01677
G1 X180.824 Y88.722 E.49527
G1 X180.898 Y89.33 E.01923
G1 X168.968 Y77.4 E.5298
M204 S1000
;WIPE_START
G1 F8640
G1 X171.877 Y80.309 E-.95
;WIPE_END
G1 E-.05 F2100
G1 Z.4 F720
G1 X188.709 Y86.994 F10800
G1 Z.2 F720
G1 E1 F2100
M204 S800
G1 F1200
G1 X194.13 Y92.414 E.24074
G1 X194.13 Y92.948 E.01677
G1 X189.137 Y87.955 E.22176
G1 X189.197 Y88.549 E.01876
G1 X194.13 Y93.483 E.21909
G1 X194.13 Y94.017 E.01677
G1 X189.139 Y89.025 E.22166
G1 X189.081 Y89.502 E.01507
G1 X194.13 Y94.551 E.22423
G1 X194.13 Y95.085 E.01677
G1 X188.935 Y89.89 E.23071
G1 X188.788 Y90.277 E.01301
G1 X194.13 Y95.619 E.23724
G1 X194.13 Y96.153 E.01677
G1 X188.602 Y90.625 E.24548
G1 X188.384 Y90.941 E.01206
G1 X194.13 Y96.687 E.25517
G1 X194.13 Y97.221 E.01677
G1 X188.166 Y91.257 E.26485
G1 X187.889 Y91.514 E.01187
G1 X194.13 Y97.755 E.27716
G1 X194.13 Y98.289 E.01677
G1 X187.606 Y91.765 E.28974
G1 X187.387 Y91.959 E.00917
G1 X187.307 Y92.001 E.00284
G1 X194.13 Y98.823 E.30299
G1 X194.13 Y99.358 E.01677
G1 X186.957 Y92.185 E.31855
G1 X186.607 Y92.368 E.01242
G1 X194.13 Y99.892 E.3341
G1 X194.13 Y100.426 E.01677
G1 X186.204 Y92.5 E.35198
G1 X185.776 Y92.606 E.01386
G1 X194.13 Y100.96 E.371
G1 X194.13 Y101.494 E.01677
G1 X185.308 Y92.672 E.39177
G1 X184.774 Y92.672 E.01677
G1 X194.13 Y102.028 E.41549
G1 X194.13 Y102.562 E.01677
G1 X183.925 Y92.357 E.45319
M204 S1000
;WIPE_START
G1 F8640
G1 X186.835 Y95.267 E-.95
;WIPE_END
G1 E-.05 F2100
G1 Z.4 F720
G1 X194.3 Y103.266 F10800
G1 Z.2 F720
G1 E1 F2100
M204 S800
G1 F1200
G1 X183.413 Y92.379 E.4835
G1 X182.613 Y91.959 E.02837
G1 X181.854 Y91.287 E.03182
G1 X181.279 Y90.453 E.03182
G1 X181.151 Y90.117 E.01127
G1 X168.604 Y77.57 E.55723
G1 X168.07 Y77.57 E.01677
G1 X194.13 Y103.63 E1.15733
G1 X194.13 Y104.164 E.01677
G1 X167.536 Y77.57 E1.18105
G1 X167.002 Y77.57 E.01677
G1 X194.13 Y104.698 E1.20477
G1 X194.13 Y105.233 E.01677
G1 X166.467 Y77.57 E1.22849
G1 X165.933 Y77.57 E.01677
G1 X194.13 Y105.767 E1.25221
G1 X194.13 Y106.301 E.01677
G1 X165.399 Y77.57 E1.27593
G1 X164.865 Y77.57 E.01677
G1 X194.13 Y106.835 E1.29965
G1 X194.13 Y107.369 E.01677
G1 X164.331 Y77.57 E1.32337
G1 X163.797 Y77.57 E.01677
M73 P1 R149
G1 X194.13 Y107.903 E1.34708
G1 X194.13 Y108.437 E.01677
G1 X163.263 Y77.57 E1.3708
G1 X162.729 Y77.57 E.01677
G1 X194.13 Y108.971 E1.39452
G1 X194.13 Y109.505 E.01677
G1 X162.195 Y77.57 E1.41824
G1 X161.661 Y77.57 E.01677
G1 X194.13 Y110.039 E1.44196
G1 X194.13 Y110.573 E.01677
M73 Q1 S150
G1 X161.127 Y77.57 E1.46568
G1 X160.592 Y77.57 E.01677
G1 X194.13 Y111.108 E1.4894
G1 X194.13 Y111.642 E.01677
G1 X160.058 Y77.57 E1.51312
G1 X159.524 Y77.57 E.01677
G1 X194.13 Y112.176 E1.53683
G1 X194.13 Y112.71 E.01677
G1 X158.99 Y77.57 E1.56055
G1 X158.456 Y77.57 E.01677
G1 X194.13 Y113.244 E1.58427
G1 X194.13 Y113.778 E.01677
G1 X157.922 Y77.57 E1.60799
G1 X157.388 Y77.57 E.01677
G1 X194.13 Y114.312 E1.63171
G1 X194.13 Y114.846 E.01677
G1 X156.854 Y77.57 E1.65543
G1 X156.32 Y77.57 E.01677
M73 P2 R149
M73 Q2 S150
G1 X194.13 Y115.38 E1.67915
G1 X194.13 Y115.914 E.01677
G1 X155.786 Y77.57 E1.70287
