; generated by PrusaSlicer 2.4.1+win64 on 2022-04-07 at 15:07:05 UTC

; 

; external perimeters extrusion width = 0.60mm
; perimeters extrusion width = 0.50mm
; infill extrusion width = 0.50mm
; solid infill extrusion width = 0.50mm
; top infill extrusion width = 0.45mm
; first layer extrusion width = 0.42mm

M73 P0 R73
M73 Q0 S74
M201 X1000 Y1000 Z200 E5000 ; sets maximum accelerations, mm/sec^2
M203 X200 Y200 Z12 E120 ; sets maximum feedrates, mm / sec
M204 P1250 R1250 T1250 ; sets acceleration (P, T) and retract acceleration (R), mm/sec^2
M205 X8.00 Y8.00 Z0.40 E4.50 ; sets the jerk limits, mm/sec
M205 S0 T0 ; sets the minimum extruding and travel feed rate, mm/sec
M107
;TYPE:Custom
M862.3 P "MK3SMMU2S" ; printer model check
M862.1 P0.4 ; nozzle diameter check
M115 U3.10.1 ; tell printer latest fw version
G90 ; use absolute coordinates
M83 ; extruder relative mode
M104 S230 ; set extruder temp
M140 S85 ; set bed temp
Tx
M190 S85 ; wait for bed temp
M109 S230 ; wait for extruder temp
G28 W ; home all without mesh bed level
G80 ; mesh bed leveling

;go outside print area
G1 Y-3 F1000
G1 Z0.4 F1000
; select extruder
Tc
; purge line
G1 X55 F2000
G1 Z0.3 F1000
G92 E0
G1 X240 E25 F2200
G1 Y-2 F1000
M73 Q0 S73
G1 X55 E25 F1400
G1 Z0.2 F1000
G1 X5 E4 F1000

M221 S95
G92 E0

; Don't change E values below. Excessive value can damage the printer.

M907 E538 ; set extruder motor current
G21 ; set units to millimeters
G90 ; use absolute coordinates
M83 ; use relative distances for extrusion
M900 K0.08 ; Filament gcode LA 1.5
M900 K45 ; Filament gcode LA 1.0
M107
;LAYER_CHANGE
;Z:0.2
;HEIGHT:0.2
;BEFORE_LAYER_CHANGE
G92 E0.0
;0.2


G1 E-1 F2100
G1 Z.2 F720
;AFTER_LAYER_CHANGE
;0.2
G1 Z.4
G1 X53.86 Y74.317 F10800
G1 Z.2 F720
G1 E1 F2100
M204 S800
;TYPE:Skirt/Brim
;WIDTH:0.42
G1 F1200
G1 X54.8 Y74.123 E.03008
G1 X195.2 Y74.123 E4.40214
G1 X196.507 Y74.515 E.04278
G1 X197.383 Y75.56 E.04278
G1 X197.577 Y76.5 E.03008
G1 X197.577 Y133.5 E1.78719
G1 X197.185 Y134.807 E.04278
G1 X196.14 Y135.683 E.04278
G1 X195.2 Y135.877 E.03008
G1 X54.8 Y135.877 E4.40214
G1 X53.493 Y135.485 E.04278
G1 X52.617 Y134.44 E.04278
G1 X52.423 Y133.5 E.03008
G1 X52.423 Y76.5 E1.78719
G1 X52.815 Y75.193 E.04278
G1 X53.814 Y74.355 E.0409
M204 S1000
; printing object 4mmSpacer.stl id:0 copy 0
;WIPE_START
G1 F8640
G1 X54.8 Y74.123 E-.23384
G1 X57.902 Y74.123 E-.71616
;WIPE_END
G1 E-.05 F2100
G1 Z.4 F720
G1 X181.212 Y120.52 F10800
G1 Z.2 F720
G1 E1 F2100
M204 S800
;TYPE:Perimeter
G1 F1200
G1 X181.531 Y119.679 E.02818
G1 X182.067 Y118.902 E.02961
G1 X182.774 Y118.276 E.02961
G1 X183.611 Y117.837 E.02961
G1 X184.528 Y117.611 E.02961
G1 X185.472 Y117.611 E.02961
G1 X186.389 Y117.837 E.02961
G1 X187.226 Y118.276 E.02961
G1 X187.933 Y118.902 E.02961
G1 X188.469 Y119.679 E.02961
G1 X188.804 Y120.562 E.02961
G1 X188.918 Y121.5 E.02961
G1 X188.804 Y122.438 E.02961
G1 X188.469 Y123.321 E.02961
G1 X187.933 Y124.098 E.02961
G1 X187.226 Y124.724 E.02961
G1 X186.389 Y125.163 E.02961
G1 X185.472 Y125.389 E.02961
G1 X184.528 Y125.389 E.02961
G1 X183.611 Y125.163 E.02961
G1 X182.774 Y124.724 E.02961
G1 X182.067 Y124.098 E.02961
G1 X181.531 Y123.321 E.02961
G1 X181.196 Y122.438 E.02961
G1 X181.082 Y121.5 E.02961
G1 X181.194 Y120.577 E.02917
M204 S1000
G1 X181.565 Y120.653 F10800
M204 S800
;TYPE:External perimeter
G1 F1200
G1 X181.867 Y119.856 E.02674
G1 X182.11 Y119.505 E.01337
G1 X182.352 Y119.154 E.01337
G1 X182.99 Y118.588 E.02674
G1 X183.745 Y118.192 E.02674
G1 X184.574 Y117.988 E.02674
G1 X185.426 Y117.988 E.02674
G1 X186.255 Y118.192 E.02674
G1 X187.01 Y118.588 E.02674
G1 X187.648 Y119.154 E.02674
G1 X188.133 Y119.856 E.02674
G1 X188.435 Y120.653 E.02674
G1 X188.538 Y121.5 E.02674
G1 X188.435 Y122.347 E.02674
G1 X188.133 Y123.144 E.02674
G1 X187.648 Y123.846 E.02674
G1 X187.01 Y124.412 E.02674
G1 X186.255 Y124.808 E.02674
G1 X185.426 Y125.012 E.02674
G1 X184.574 Y125.012 E.02674
G1 X183.745 Y124.808 E.02674
G1 X182.99 Y124.412 E.02674
G1 X182.352 Y123.846 E.02674
G1 X181.867 Y123.144 E.02674
G1 X181.565 Y122.347 E.02674
G1 X181.462 Y121.5 E.02674
G1 X181.558 Y120.713 E.02486
M204 S1000
G1 X181.276 Y120.376 F10800
;WIPE_START
G1 F8640
G1 X181.867 Y119.856 E-.21042
G1 X182.11 Y119.505 E-.09847
G1 X182.352 Y119.154 E-.09847
G1 X182.99 Y118.588 E-.19694
G1 X183.745 Y118.192 E-.19694
G1 X184.371 Y118.038 E-.14876
;WIPE_END
G1 E-.05 F2100
G1 Z.4 F720
G1 X184.574 Y95.389 F10800
G1 Z.2 F720
G1 E1 F2100
M204 S800
;TYPE:Perimeter
G1 F1200
G1 X183.611 Y95.163 E.03101
G1 X182.774 Y94.724 E.02961
G1 X182.067 Y94.098 E.02961
G1 X181.531 Y93.321 E.02961
M73 Q1 S73
G1 X181.196 Y92.438 E.02961
G1 X181.082 Y91.5 E.02961
G1 X181.196 Y90.562 E.02961
G1 X181.531 Y89.679 E.02961
G1 X182.067 Y88.902 E.02961
G1 X182.774 Y88.276 E.02961
G1 X183.611 Y87.837 E.02961
G1 X184.528 Y87.611 E.02961
G1 X185.472 Y87.611 E.02961
G1 X186.389 Y87.837 E.02961
G1 X187.226 Y88.276 E.02961
M73 P1 R73
G1 X187.933 Y88.902 E.02961
G1 X188.469 Y89.679 E.02961
G1 X188.804 Y90.562 E.02961
G1 X188.918 Y91.5 E.02961
G1 X188.804 Y92.438 E.02961
G1 X188.469 Y93.321 E.02961
G1 X187.933 Y94.098 E.02961
G1 X187.226 Y94.724 E.02961
G1 X186.389 Y95.163 E.02961
G1 X185.472 Y95.389 E.02961
G1 X184.634 Y95.389 E.0263
M204 S1000
G1 X184.574 Y95.012 F10800
M204 S800
;TYPE:External perimeter
G1 F1200
G1 X183.745 Y94.808 E.02674
G1 X182.99 Y94.412 E.02674
G1 X182.352 Y93.846 E.02674
G1 X181.867 Y93.144 E.02674
G1 X181.565 Y92.347 E.02674
G1 X181.462 Y91.5 E.02674
G1 X181.565 Y90.653 E.02674
G1 X181.867 Y89.856 E.02674
G1 X182.352 Y89.154 E.02674
G1 X182.99 Y88.588 E.02674
G1 X183.745 Y88.192 E.02674
G1 X184.574 Y87.988 E.02674
G1 X185.426 Y87.988 E.02674
G1 X186.255 Y88.192 E.02674
G1 X187.01 Y88.588 E.02674
G1 X187.648 Y89.154 E.02674
G1 X188.133 Y89.856 E.02674
G1 X188.435 Y90.653 E.02674
G1 X188.538 Y91.5 E.02674
G1 X188.435 Y92.347 E.02674
G1 X188.133 Y93.144 E.02674
G1 X187.648 Y93.846 E.02674
G1 X187.01 Y94.412 E.02674
M73 P1 R72
G1 X186.255 Y94.808 E.02674
G1 X185.426 Y95.012 E.02674
G1 X184.634 Y95.012 E.02486
M204 S1000
G1 X184.333 Y95.332 F10800
;WIPE_START
G1 F8640
G1 X183.745 Y94.808 E-.21042
G1 X182.99 Y94.412 E-.19694
G1 X182.352 Y93.846 E-.19694
G1 X181.867 Y93.144 E-.19694
G1 X181.639 Y92.542 E-.14876
;WIPE_END
G1 E-.05 F2100
G1 Z.4 F720
G1 X68.912 Y91.455 F10800
G1 Z.2 F720
G1 E1 F2100
M204 S800
;TYPE:Perimeter
G1 F1200
G1 X68.804 Y92.438 E.03101
G1 X68.469 Y93.321 E.02961
G1 X67.933 Y94.098 E.02961
G1 X67.226 Y94.724 E.02961
G1 X66.389 Y95.163 E.02961
G1 X65.472 Y95.389 E.02961
G1 X64.528 Y95.389 E.02961
G1 X63.611 Y95.163 E.02961
G1 X62.774 Y94.724 E.02961
G1 X62.067 Y94.098 E.02961
G1 X61.531 Y93.321 E.02961
G1 X61.196 Y92.438 E.02961
G1 X61.082 Y91.5 E.02961
G1 X61.196 Y90.562 E.02961
G1 X61.531 Y89.679 E.02961
G1 X62.067 Y88.902 E.02961
G1 X62.774 Y88.276 E.02961
G1 X63.611 Y87.837 E.02961
G1 X64.528 Y87.611 E.02961
G1 X65.472 Y87.611 E.02961
G1 X66.389 Y87.837 E.02961
G1 X67.226 Y88.276 E.02961
G1 X67.933 Y88.902 E.02961
G1 X68.469 Y89.679 E.02961
G1 X68.804 Y90.562 E.02961
G1 X68.905 Y91.395 E.0263
M204 S1000
G1 X68.538 Y91.5 F10800
M204 S800
;TYPE:External perimeter
G1 F1200
G1 X68.435 Y92.347 E.02674
G1 X68.133 Y93.144 E.02674
G1 X67.648 Y93.846 E.02674
G1 X67.01 Y94.412 E.02674
G1 X66.255 Y94.808 E.02674
G1 X65.426 Y95.012 E.02674
G1 X64.574 Y95.012 E.02674
G1 X63.745 Y94.808 E.02674
G1 X62.99 Y94.412 E.02674
G1 X62.352 Y93.846 E.02674
G1 X61.867 Y93.144 E.02674
G1 X61.565 Y92.347 E.02674
G1 X61.462 Y91.5 E.02674
G1 X61.565 Y90.653 E.02674
G1 X61.867 Y89.856 E.02674
G1 X62.352 Y89.154 E.02674
G1 X62.99 Y88.588 E.02674
G1 X63.745 Y88.192 E.02674
G1 X64.574 Y87.988 E.02674
G1 X65.426 Y87.988 E.02674
G1 X66.255 Y88.192 E.02674
G1 X67.01 Y88.588 E.02674
G1 X67.648 Y89.154 E.02674
G1 X68.133 Y89.856 E.02674
G1 X68.435 Y90.653 E.02674
G1 X68.531 Y91.44 E.02486
M204 S1000
G1 X68.884 Y91.7 F10800
;WIPE_START
G1 F8640
G1 X68.435 Y92.347 E-.21042
G1 X68.133 Y93.144 E-.19694
G1 X67.648 Y93.846 E-.19694
G1 X67.01 Y94.412 E-.19694
G1 X66.439 Y94.711 E-.14876
;WIPE_END
G1 E-.05 F2100
G1 Z.4 F720
G1 X65.517 Y117.622 F10800
G1 Z.2 F720
G1 E1 F2100
M204 S800
;TYPE:Perimeter
G1 F1200
G1 X66.389 Y117.837 E.02818
G1 X67.226 Y118.276 E.02961
G1 X67.933 Y118.902 E.02961
G1 X68.469 Y119.679 E.02961
G1 X68.804 Y120.562 E.02961
G1 X68.918 Y121.5 E.02961
G1 X68.804 Y122.438 E.02961
G1 X68.469 Y123.321 E.02961
G1 X67.933 Y124.098 E.02961
G1 X67.226 Y124.724 E.02961
G1 X66.389 Y125.163 E.02961
G1 X65.472 Y125.389 E.02961
G1 X64.528 Y125.389 E.02961
G1 X63.611 Y125.163 E.02961
G1 X62.774 Y124.724 E.02961
G1 X62.067 Y124.098 E.02961
G1 X61.531 Y123.321 E.02961
G1 X61.196 Y122.438 E.02961
G1 X61.082 Y121.5 E.02961
G1 X61.196 Y120.562 E.02961
G1 X61.531 Y119.679 E.02961
G1 X62.067 Y118.902 E.02961
G1 X62.774 Y118.276 E.02961
G1 X63.611 Y117.837 E.02961
G1 X64.528 Y117.611 E.02961
G1 X65.458 Y117.611 E.02917
M204 S1000
G1 X65.426 Y117.988 F10800
M204 S800
;TYPE:External perimeter
G1 F1200
G1 X66.255 Y118.192 E.02674
G1 X67.01 Y118.588 E.02674
G1 X67.648 Y119.154 E.02674
G1 X68.133 Y119.856 E.02674
G1 X68.435 Y120.653 E.02674
G1 X68.538 Y121.5 E.02674
G1 X68.435 Y122.347 E.02674
G1 X68.133 Y123.144 E.02674
G1 X67.648 Y123.846 E.02674
G1 X67.01 Y124.412 E.02674
G1 X66.255 Y124.808 E.02674
G1 X65.426 Y125.012 E.02674
G1 X64.574 Y125.012 E.02674
G1 X63.745 Y124.808 E.02674
G1 X62.99 Y124.412 E.02674
G1 X62.352 Y123.846 E.02674
G1 X61.867 Y123.144 E.02674
G1 X61.565 Y122.347 E.02674
G1 X61.462 Y121.5 E.02674
G1 X61.565 Y120.653 E.02674
G1 X61.867 Y119.856 E.02674
G1 X62.352 Y119.154 E.02674
G1 X62.99 Y118.588 E.02674
G1 X63.745 Y118.192 E.02674
G1 X64.574 Y117.988 E.02674
G1 X65.366 Y117.988 E.02486
M204 S1000
G1 X65.667 Y117.668 F10800
;WIPE_START
G1 F8640
G1 X66.255 Y118.192 E-.21042
G1 X67.01 Y118.588 E-.19694
G1 X67.648 Y119.154 E-.19694
G1 X68.133 Y119.856 E-.19694
G1 X68.361 Y120.458 E-.14876
;WIPE_END
G1 E-.05 F2100
G1 Z.4 F720
G1 X55.587 Y132.713 F10800
G1 Z.2 F720
G1 E1 F2100
M204 S800
;TYPE:Perimeter
G1 F1200
G1 X55.587 Y77.287 E1.73784
G1 X194.413 Y77.287 E4.35279
G1 X194.413 Y132.713 E1.73784
G1 X55.647 Y132.713 E4.35091
M204 S1000
M73 Q1 S72
G1 X55.21 Y133.09 F10800
M204 S800
;TYPE:External perimeter
G1 F1200
G1 X55.21 Y76.91 E1.76148
G1 X194.79 Y76.91 E4.37643
G1 X194.79 Y133.09 E1.76148
G1 X55.27 Y133.09 E4.37455
M204 S1000
G1 X55.364 Y132.721 F10800
;WIPE_START
M73 P2 R72
M73 Q2 S72
G1 F8640
G1 X55.266 Y128.976 E-.95
;WIPE_END
G1 E-.05 F2100
G1 Z.4 F720
G1 X193.536 Y77.4 F10800
G1 Z.2 F720
G1 E1 F2100
M204 S800
;TYPE:Solid infill
;WIDTH:0.420578
G1 F1200
G1 X194.13 Y77.994 E.02637
G1 X194.13 Y78.528 E.01677
G1 X193.172 Y77.57 E.04255
G1 X192.638 Y77.57 E.01677
G1 X194.13 Y79.062 E.06627
G1 X194.13 Y79.596 E.01677
G1 X192.104 Y77.57 E.08999
G1 X191.57 Y77.57 E.01677
G1 X194.13 Y80.13 E.11371
G1 X194.13 Y80.664 E.01677
G1 X191.036 Y77.57 E.13743
G1 X190.501 Y77.57 E.01677
G1 X194.13 Y81.199 E.16115
G1 X194.13 Y81.733 E.01677
G1 X189.967 Y77.57 E.18487
G1 X189.433 Y77.57 E.01677
G1 X194.13 Y82.267 E.20859
G1 X194.13 Y82.801 E.01677
G1 X188.899 Y77.57 E.2323
G1 X188.365 Y77.57 E.01677
G1 X194.13 Y83.335 E.25602
G1 X194.13 Y83.869 E.01677
G1 X187.831 Y77.57 E.27974
G1 X187.297 Y77.57 E.01677
G1 X194.13 Y84.403 E.30346
G1 X194.13 Y84.937 E.01677
G1 X186.763 Y77.57 E.32718
G1 X186.229 Y77.57 E.01677
G1 X194.13 Y85.471 E.3509
G1 X194.13 Y86.005 E.01677
G1 X185.695 Y77.57 E.37462
G1 X185.161 Y77.57 E.01677
G1 X194.13 Y86.539 E.39833
G1 X194.13 Y87.074 E.01677
G1 X184.626 Y77.57 E.42205
G1 X184.092 Y77.57 E.01677
G1 X194.13 Y87.608 E.44577
G1 X194.13 Y88.142 E.01677
G1 X183.558 Y77.57 E.46949
G1 X183.024 Y77.57 E.01677
G1 X194.13 Y88.676 E.49321
G1 X194.13 Y89.21 E.01677
G1 X182.49 Y77.57 E.51693
G1 X181.956 Y77.57 E.01677
G1 X194.13 Y89.744 E.54065
G1 X194.13 Y90.278 E.01677
G1 X181.422 Y77.57 E.56437
G1 X180.888 Y77.57 E.01677
G1 X194.13 Y90.812 E.58808
G1 X194.13 Y91.346 E.01677
M73 P2 R71
G1 X180.354 Y77.57 E.6118
G1 X179.82 Y77.57 E.01677
G1 X194.13 Y91.88 E.63552
G1 X194.13 Y92.414 E.01677
G1 X179.286 Y77.57 E.65924
G1 X178.752 Y77.57 E.01677
G1 X194.13 Y92.948 E.68296
G1 X194.13 Y93.483 E.01677
G1 X178.217 Y77.57 E.70668
G1 X177.683 Y77.57 E.01677
G1 X194.13 Y94.017 E.7304
G1 X194.13 Y94.551 E.01677
G1 X177.149 Y77.57 E.75412
G1 X176.615 Y77.57 E.01677
G1 X186.754 Y87.709 E.45027
G1 X187.387 Y88.041 E.02246
G1 X188.146 Y88.713 E.03182
G1 X188.721 Y89.547 E.03182
G1 X188.8 Y89.755 E.00699
G1 X194.13 Y95.085 E.2367
G1 X194.13 Y95.619 E.01677
G1 X189.091 Y90.58 E.22379
G1 X189.165 Y91.188 E.01923
G1 X194.13 Y96.153 E.22051
G1 X194.13 Y96.687 E.01677
G1 X189.175 Y91.732 E.22007
G1 X189.117 Y92.208 E.01507
G1 X194.13 Y97.221 E.22264
G1 X194.13 Y97.755 E.01677
G1 X189.026 Y92.651 E.22669
G1 X188.879 Y93.038 E.01301
G1 X194.13 Y98.289 E.23321
G1 X194.13 Y98.823 E.01677
G1 X188.732 Y93.425 E.23973
G1 X188.519 Y93.746 E.0121
G1 X194.13 Y99.358 E.24919
G1 X194.13 Y99.892 E.01677
G1 X188.301 Y94.062 E.25888
G1 X188.146 Y94.287 E.00857
G1 X188.064 Y94.359 E.00344
G1 X194.13 Y100.426 E.2694
G1 X194.13 Y100.96 E.01677
G1 X187.781 Y94.61 E.28198
G1 X187.497 Y94.861 E.01188
G1 X194.13 Y101.494 E.29455
G1 X194.13 Y102.028 E.01677
G1 X187.173 Y95.071 E.30895
G1 X186.823 Y95.255 E.01242
G1 X194.13 Y102.562 E.32451
G1 X194.13 Y103.096 E.01677
G1 X186.469 Y95.435 E.34023
G1 X186.04 Y95.541 E.01386
G1 X194.13 Y103.63 E.35926
G1 X194.13 Y104.164 E.01677
G1 X185.612 Y95.646 E.37829
G1 X185.507 Y95.672 E.00341
G1 X185.104 Y95.672 E.01265
G1 X194.13 Y104.698 E.40086
M73 Q2 S71
G1 X194.13 Y105.233 E.01677
G1 X184.57 Y95.672 E.42458
G1 X184.493 Y95.672 E.00239
G1 X183.886 Y95.522 E.01965
G1 X194.3 Y105.936 E.46248
M204 S1000
;WIPE_START
G1 F8640
G1 X191.391 Y103.027 E-.95
;WIPE_END
G1 E-.05 F2100
G1 Z.4 F720
G1 X186.18 Y87.669 F10800
G1 Z.2 F720
G1 E1 F2100
M204 S800
G1 F1200
G1 X176.081 Y77.57 E.44848
G1 X175.547 Y77.57 E.01677
G1 X185.305 Y87.328 E.43335
G1 X184.771 Y87.328 E.01677
G1 X175.013 Y77.57 E.43335
G1 X174.479 Y77.57 E.01677
G1 X184.288 Y87.379 E.4356
G1 X183.859 Y87.484 E.01386
G1 X173.945 Y77.57 E.44029
G1 X173.411 Y77.57 E.01677
G1 X183.445 Y87.604 E.44563
G1 X183.095 Y87.788 E.01242
G1 X172.877 Y77.57 E.45379
G1 X172.342 Y77.57 E.01677
G1 X182.745 Y87.972 E.46195
G1 X182.613 Y88.041 E.00468
M73 Q3 S71
G1 X182.436 Y88.198 E.00741
G1 X171.808 Y77.57 E.47197
G1 X171.274 Y77.57 E.01677
M73 P3 R71
G1 X182.153 Y88.448 E.48312
G1 X181.87 Y88.699 E.01188
G1 X170.74 Y77.57 E.49426
G1 X170.206 Y77.57 E.01677
G1 X181.648 Y89.012 E.50813
G1 X181.43 Y89.328 E.01206
G1 X169.672 Y77.57 E.52217
G1 X169.138 Y77.57 E.01677
G1 X181.234 Y89.666 E.53717
G1 X181.087 Y90.053 E.01301
G1 X168.604 Y77.57 E.55436
G1 X168.07 Y77.57 E.01677
G1 X180.94 Y90.44 E.57156
G1 X180.87 Y90.904 E.01473
G1 X167.536 Y77.57 E.59216
G1 X167.002 Y77.57 E.01677
G1 X180.812 Y91.38 E.61331
G1 X180.797 Y91.5 E.00379
G1 X180.853 Y91.955 E.01439
G1 X166.467 Y77.57 E.63884
G1 X165.933 Y77.57 E.01677
G1 X181.242 Y92.879 E.67987
M204 S1000
;WIPE_START
G1 F8640
G1 X178.333 Y89.97 E-.95
;WIPE_END
G1 E-.05 F2100
G1 Z.4 F720
G1 X194.3 Y106.47 F10800
G1 Z.2 F720
G1 E1 F2100
M204 S800
G1 F1200
G1 X182.982 Y95.153 E.50261
G1 X182.613 Y94.959 E.01311
G1 X181.854 Y94.287 E.03182
G1 X181.276 Y93.447 E.03202
G1 X165.399 Y77.57 E.70509
G1 X164.865 Y77.57 E.01677
G1 X194.13 Y106.835 E1.29965
G1 X194.13 Y107.369 E.01677
G1 X164.331 Y77.57 E1.32337
G1 X163.797 Y77.57 E.01677
G1 X194.13 Y107.903 E1.34708
G1 X194.13 Y108.437 E.01677
G1 X163.263 Y77.57 E1.3708
G1 X162.729 Y77.57 E.01677
G1 X194.13 Y108.971 E1.39452
G1 X194.13 Y109.505 E.01677
G1 X162.195 Y77.57 E1.41824
G1 X161.661 Y77.57 E.01677
G1 X194.13 Y110.039 E1.44196
G1 X194.13 Y110.573 E.01677
G1 X161.127 Y77.57 E1.46568
G1 X160.592 Y77.57 E.01677
G1 X194.13 Y111.108 E1.4894
G1 X194.13 Y111.642 E.01677
M73 P3 R70
G1 X160.058 Y77.57 E1.51312
G1 X159.524 Y77.57 E.01677
G1 X194.13 Y112.176 E1.53683
G1 X194.13 Y112.71 E.01677
G1 X158.99 Y77.57 E1.56055
G1 X158.456 Y77.57 E.01677
G1 X194.13 Y113.244 E1.58427
